public/assets/img/telegram.svg

<svg width="27" height="26" viewBox="0 0 27 26" fill="none" xmlns="http://www.w3.org/2000/svg">
<path d="M13.5 26C20.9558 26 27 20.1797 27 13C27 5.8203 20.9558 0 13.5 0C6.04416 0 0 5.8203 0 13C0 20.1797 6.04416 26 13.5 26Z" fill="url(#paint0_linear_13_492)"/>
<path d="M11.025 18.9583C10.5877 18.9583 10.662 18.7993 10.5111 18.3983L9.22501 14.3223L19.125 8.66663" fill="#C8DAEA"/>
<path d="M11.025 18.9583C11.3625 18.9583 11.5116 18.8097 11.7 18.6333L13.5 16.9478L11.2547 15.644" fill="#A9C9DD"/>
<path d="M11.2545 15.6445L16.695 19.5151C17.3158 19.845 17.7639 19.6742 17.9185 18.9601L20.1331 8.91074C20.3598 8.03539 19.7866 7.63837 19.1927 7.89802L6.1888 12.7265C5.30116 13.0694 5.30634 13.5463 6.027 13.7587L9.36409 14.7617L17.0898 10.0682C17.4545 9.85521 17.7892 9.96971 17.5145 10.2045" fill="url(#paint1_linear_13_492)"/>
<defs>
<linearGradient id="paint0_linear_13_492" x1="10.1263" y1="1.0842" x2="3.79566" y2="16.4231" gradientUnits="userSpaceOnUse">
<stop stop-color="#37AEE2"/>
<stop offset="1" stop-color="#1E96C8"/>
</linearGradient>
<linearGradient id="paint1_linear_13_492" x1="11.81" y1="13.7986" x2="13.1561" y2="18.3204" gradientUnits="userSpaceOnUse">
<stop stop-color="#EFF7FC"/>
<stop offset="1" stop-color="white"/>
</linearGradient>
</defs>
</svg>

<svg width="27" height="26" fill="none" xmlns="http://www.w3.org/2000/svg"><path d="M13.5 26C20.956 26 27 20.18 27 13S20.956 0 13.5 0 0 5.82 0 13s6.044 13 13.5 13Z" fill="url(#a)"/><path d="M11.025 18.958c-.437 0-.363-.159-.514-.56l-1.286-4.076 9.9-5.655" fill="#C8DAEA"/><path d="M11.025 18.958c.338 0 .487-.148.675-.325l1.8-1.685-2.245-1.304" fill="#A9C9DD"/><path d="m11.255 15.645 5.44 3.87c.62.33 1.069.16 1.224-.555l2.214-10.05c.227-.875-.346-1.272-.94-1.012L6.189 12.727c-.888.342-.883.82-.162 1.032l3.337 1.003 7.726-4.694c.364-.213.7-.098.425.136" fill="url(#b)"/><defs><linearGradient id="a" x1="10.126" y1="1.084" x2="3.796" y2="16.423" gradientUnits="userSpaceOnUse"><stop stop-color="#37AEE2"/><stop offset="1" stop-color="#1E96C8"/></linearGradient><linearGradient id="b" x1="11.81" y1="13.799" x2="13.156" y2="18.32" gradientUnits="userSpaceOnUse"><stop stop-color="#EFF7FC"/><stop offset="1" stop-color="#fff"/></linearGradient></defs></svg>
